images/icons/paypal_p_icon.svg

<svg width="20" height="20" viewBox="0 0 20 20" fill="none" xmlns="http://www.w3.org/2000/svg">
<path d="M8.27505 10.825C8.35838 10.825 10.2917 10.9083 11.4417 10.625H11.45C12.775 10.3 14.6167 9.36667 15.0917 6.31667C15.0917 6.31667 16.15 2.5 10.9 2.5H6.39172C5.98338 2.5 5.63338 2.8 5.56672 3.2L3.65005 15.3333C3.60838 15.5833 3.80838 15.8167 4.05838 15.8167H6.91672L7.61672 11.3833C7.66672 11.0667 7.94172 10.825 8.27505 10.825Z" fill="black"/>
<path d="M15.8251 6.90833C15.1501 10.0167 13.0251 11.6583 9.64179 11.6583H8.41679L7.55846 17.0917C7.52512 17.3083 7.69179 17.5 7.90846 17.5H9.49179C9.77512 17.5 10.0251 17.2917 10.0668 17.0083C10.1335 16.675 10.5001 14.2417 10.5751 13.825C10.6168 13.5417 10.8668 13.3333 11.1501 13.3333H11.5168C13.8668 13.3333 15.7085 12.375 16.2501 9.61667C16.4668 8.5 16.3501 7.58333 15.8251 6.90833Z" fill="black"/>
</svg>

<svg xmlns="http://www.w3.org/2000/svg" width="20" height="20"><path d="M8.275 10.825c.083 0 2.017.083 3.167-.2h.008c1.325-.325 3.167-1.258 3.642-4.308 0 0 1.058-3.817-4.192-3.817H6.392a.84.84 0 0 0-.825.7L3.65 15.333a.42.42 0 0 0 .408.483h2.858l.7-4.433a.664.664 0 0 1 .658-.558zm7.55-3.917c-.675 3.108-2.8 4.75-6.183 4.75H8.417l-.858 5.433a.353.353 0 0 0 .35.408h1.583a.582.582 0 0 0 .575-.492l.508-3.183a.583.583 0 0 1 .575-.492h.367c2.35 0 4.192-.958 4.733-3.717.217-1.117.1-2.033-.425-2.708z"/></svg>
